X:1
T:Title
%%score { 1 | 2 }
L:1/8
Q:1/4=100
M:4/4
K:Ab
V:1 treble nm="Grand Piano"
V:2 bass 
V:1
 [CE]2 [Ec]2 [Ec]>[CA] [CE]2 | [DF]2 [Fd]2 [Fd]>[FB] [EG]2 | [EG]2 [Ge]2 eedB | c2 [Ec]2 B4 | %4
w: Ira~D.~Sankey * * * *||||
 E2 c2 [Ec]>[CA] [CE]2 | [DF]2 [Fd]2 [Fd]>[FB] [EG]2 | [EG]2 [Ge]2 [Ae][_Ge][Fd][FB] | %7
w: |||
 [EA]2 [DG]2 [CA]4 | B2 c2 d>c B2 | c2 d2 e>d c2 | B2 B2 BBcc | B2 [A=d]2 [Ge]4 | %12
w: |||||
 E2 c2 [Ec]>[CA] [CE]2 | [DF]2 [Fd]2 [Fd]>[FB] [EG]2 | [EG]2 [Ge]2 [Ae][_Ge][Fd][FB] | %15
w: |||
 [EA]2 [DG]2 [CA]4 |] %16
w: |
V:2
 [A,,A,]2 [A,,A,]2 [A,,A,]>[A,,E,] [A,,A,]2 | [D,A,]2 [D,A,]2 [B,,B,]>[B,,B,] [E,B,]2 | %2
 [E,B,]2 [E,B,]2 [E,G,E][E,G,E][F,A,E][G,B,E] | [A,E]2 [A,,A,]2 [E,G,E]4 | %4
 [A,C]2 [A,E]2 [A,,A,]>[A,,E,] [A,,A,]2 | [D,A,]2 [D,A,]2 [B,,B,]>[B,,B,] [E,B,]2 | %6
 [E,B,]2 [D,B,]2 [C,A,][C,A,][D,A,][D,D] | [E,C]2 [E,B,]2 [A,,A,]4 | %8
 [E,G,E]2 [A,E]2 [G,B,E]>[A,E] [E,G,E]2 | [A,E]2 [A,B,E]2 [A,CA]>[G,B,E] [A,E]2 | %10
 [E,G,E]2 [F,A,E]2 [G,B,E][G,B,E][A,E][A,E] | [G,B,E]2 [F,B,]2 [E,B,]4 | %12
 [A,C]2 [A,E]2 [A,,A,]>[A,,E,] [A,,A,]2 | [D,A,]2 [D,A,]2 [B,,B,]>[B,,B,] [E,B,]2 | %14
 [E,B,]2 [D,B,]2 [C,A,][C,A,][D,A,][D,D] | [E,C]2 [E,B,]2 [A,,A,]4 |] %16

